X: 25439
T: Marcha De Lousame
R: reel
M: 4/4
K: Gmajor
A2AG GFED|B2BA GDGB|A2AG GFED|B2BA G2(3GAB|
c2cB BAGF|d4- dBcd|e2dc BABc|dedB G2(3dBd|
e2dc BABc|d4- dBcd|e2ed fdfa|g2fe defd|e2ed fdfa|
g2fe defd|efed cdec|dedc BcdB|cdcB ABcA|
BcBA GABG|ABAG FGAF|G4 GBGB|:d3c/B/ ABAG|
FEDE FGAB|c2cB BAGF|dBG2 GBGB|d3c/B/ ABAG|
FEDE FGAB|cBce d2-d/c/B/A/|1 G4 GBGB:|2 G4 F2G2||

